X: 1
T:Musica, dein ganz lieblich Kunst
C:Johann Jeep
O:Germany
B:Jeep1614
R:Renaissance
Z:Transcribed by Frank Nordberg - http://www.musicaviva.com

V:1 Program 1 68 %Oboe
V:2 Program 1 73 %Flute
V:3 Program 1 69 alto %English horn
V:4 Program 1 70 bass %Bassoon
M:C|
L:1/4
Q:1/2=105
K:C
V:1
G2GG|c2G2|A&gt;Bc2-|cB/A/BB|ccc&gt;B|A2G2|

V:2
z4|C2CC|F2C2|D3D|EEEE|FFED/C/|

V:3
z4|z4|z4|G,2G,G,|C2G,2|A,&gt;B,C2-|

V:4
z4|z4|z4|z4|C,2C,C,|F,2C,2|

V:1
G3G|G2z2|z4|zcA&gt;B|c3B|A2B2|z2zB|

V:2
D3D|EGE&gt;F|GGA2|GGF2|GA2G-|G^FG2|z2zG|

V:3
CB,/A,/B,B,|CEC&gt;D|EEFE/D/|E2DF|EEFD|C2DD|EDCD|

V:4
G,3G,|C,4|zCA,&gt;B,|C2D2|C/B,/A,/G,/F,G,|A,2G,2|zG,A,G,|

V:1
c&gt;BAA|G4|G4::(3ccc (3:2:2B2A|^G2A2|

V:2
AGF2-|FED2|E4::(3GGG (3:2:2G2E|E2D2|

V:3
A,/B,/C&gt;B,A,|B,C2B,|C4::(3EEE (3:2:2D2C|B,2A,2|

V:4
F,E,F,/G,/A,/F,/|G,4|C,4::(3CCC (3:2:2G,2A,|E,2F,2|

V:1
^GABB|B/A/G/A/Bc|ded2|BccB|A&gt;GFA|G4|G4:|

V:2
E^FGG|G/A/B/A/GG|A/B/c/B/AA|zGAG|F&gt;GAF|E2D2|E4:|

V:3
B,DDD|D/C/B,/C/DE|^FG2F|GEE&gt;D|C3D|B,/G,/C2B,|C4:|

V:4
E,D,G,G,|G,3F,/E,/|D,C,D,2|G,CA,E,|F,3D,|E,&gt;F,G,2|C,4:|

